!!!SOCIAL_FUNCTION:	moccasin game songs
!!!PDT:	1909
!!!OTL: No_171.krn
!!!REG: Great_Lakes
!!!LANG: Non-Tone
!!!LING_GROUP: Algonquin
**kern	**kern
*staff2	*staff1
*clefF4	*clefF4
*k[]	*k[]
*M3/4	*M3/4
4r	8.e\L
.	16g\Jk
=1	=1
16GG/LK	4e\
8GG^/J	.
16r	.
16GG/LK	4e\
8GG^/J	.
16r	.
16GG/LK	12e\L
8GG^/J	.
.	12d\
.	12c\J
16r	.
=2||	=2||
*M2/4	*M2/4
16GG/LK	4.c\
8GG^/J	.
16r	.
16GG/LK	.
8GG^/J	.
.	16e\LL
16r	16c\JJ
=3	=3
2r	16A\LK
.	8.A\J
.	[4A\
=4	=4
2r	4A\]
.	8.c\L
.	16A\Jk
=5||	=5||
*M3/4	*M3/4
2.r	2c\
.	12e\L
.	12c\
.	12A\J
=6||	=6||
*M2/4	*M2/4
2r	8.A\L
.	16G\Jk
.	4A\
=7||	=7||
*M3/4	*M3/4
2.r	2E\
.	12E\L
.	12D\
.	12C\J
=8||	=8||
*M2/4	*M2/4
2r	4D\
.	Eq/
.	12E/L
.	12C/
.	12AA/J
=9	=9
2r	4.AA/
.	8AA/
=10	=10
2r	2AA/
==	==
*-	*-
